images/50659354.svg

<?xml version="1.0" encoding="UTF-8"?>
<svg xmlns="http://www.w3.org/2000/svg" xmlns:xlink="http://www.w3.org/1999/xlink" width="300pt" height="300pt" viewBox="0 0 300 300" version="1.1">
<defs>
<g>
<symbol overflow="visible" id="glyph0-0">
<path style="stroke:none;" d="M 0.453125 1.59375 L 0.453125 -6.34375 L 4.953125 -6.34375 L 4.953125 1.59375 Z M 0.953125 1.09375 L 4.453125 1.09375 L 4.453125 -5.84375 L 0.953125 -5.84375 Z M 0.953125 1.09375 "/>
</symbol>
<symbol overflow="visible" id="glyph0-1">
<path style="stroke:none;" d="M 3.546875 -5.953125 C 2.898438 -5.953125 2.382812 -5.710938 2 -5.234375 C 1.625 -4.753906 1.4375 -4.101562 1.4375 -3.28125 C 1.4375 -2.445312 1.625 -1.789062 2 -1.3125 C 2.382812 -0.832031 2.898438 -0.59375 3.546875 -0.59375 C 4.191406 -0.59375 4.703125 -0.832031 5.078125 -1.3125 C 5.453125 -1.789062 5.640625 -2.445312 5.640625 -3.28125 C 5.640625 -4.101562 5.453125 -4.753906 5.078125 -5.234375 C 4.703125 -5.710938 4.191406 -5.953125 3.546875 -5.953125 Z M 3.546875 -6.6875 C 4.460938 -6.6875 5.195312 -6.375 5.75 -5.75 C 6.300781 -5.132812 6.578125 -4.3125 6.578125 -3.28125 C 6.578125 -2.238281 6.300781 -1.410156 5.75 -0.796875 C 5.195312 -0.179688 4.460938 0.125 3.546875 0.125 C 2.617188 0.125 1.878906 -0.179688 1.328125 -0.796875 C 0.773438 -1.410156 0.5 -2.238281 0.5 -3.28125 C 0.5 -4.3125 0.773438 -5.132812 1.328125 -5.75 C 1.878906 -6.375 2.617188 -6.6875 3.546875 -6.6875 Z M 3.546875 -6.6875 "/>
</symbol>
<symbol overflow="visible" id="glyph0-2">
<path style="stroke:none;" d="M 0.890625 -6.5625 L 2.078125 -6.5625 L 4.984375 -1.078125 L 4.984375 -6.5625 L 5.84375 -6.5625 L 5.84375 0 L 4.65625 0 L 1.75 -5.484375 L 1.75 0 L 0.890625 0 Z M 0.890625 -6.5625 "/>
</symbol>
<symbol overflow="visible" id="glyph0-3">
<path style="stroke:none;" d="M 0.890625 -6.5625 L 1.765625 -6.5625 L 1.765625 -3.875 L 5 -3.875 L 5 -6.5625 L 5.890625 -6.5625 L 5.890625 0 L 5 0 L 5 -3.125 L 1.765625 -3.125 L 1.765625 0 L 0.890625 0 Z M 0.890625 -6.5625 "/>
</symbol>
</g>
</defs>
<g id="surface27301">
<rect x="0" y="0" width="300" height="300" style="fill:rgb(100%,100%,100%);fill-opacity:1;stroke:none;"/>
<path style="fill:none;stroke-width:1.2;stroke-linecap:butt;stroke-linejoin:miter;stroke:rgb(100%,0%,0%);stroke-opacity:1;stroke-miterlimit:10;" d="M 35.125 153.324219 L 47.132812 153.855469 "/>
<path style="fill:none;stroke-width:1.2;stroke-linecap:butt;stroke-linejoin:miter;stroke:rgb(0%,0%,0%);stroke-opacity:1;stroke-miterlimit:10;" d="M 47.132812 153.855469 L 59.140625 154.390625 "/>
<path style="fill:none;stroke-width:1.2;stroke-linecap:butt;stroke-linejoin:miter;stroke:rgb(100%,0%,0%);stroke-opacity:1;stroke-miterlimit:10;" d="M 35.375 147.675781 L 47.382812 148.207031 "/>
<path style="fill:none;stroke-width:1.2;stroke-linecap:butt;stroke-linejoin:miter;stroke:rgb(0%,0%,0%);stroke-opacity:1;stroke-miterlimit:10;" d="M 47.382812 148.207031 L 59.390625 148.738281 "/>
<path style=" stroke:none;fill-rule:nonzero;fill:rgb(100%,100%,100%);fill-opacity:1;" d="M 27.25 145 L 35.25 145 L 35.25 156 L 27.25 156 Z M 27.25 145 "/>
<g style="fill:rgb(100%,0%,0%);fill-opacity:1;">
  <use xlink:href="#glyph0-1" x="27.25" y="153.663086"/>
</g>
<path style="fill:none;stroke-width:1.2;stroke-linecap:butt;stroke-linejoin:miter;stroke:rgb(0%,0%,0%);stroke-opacity:1;stroke-miterlimit:10;" d="M 59.265625 151.5625 L 66.753906 142.164062 "/>
<path style="fill:none;stroke-width:1.2;stroke-linecap:butt;stroke-linejoin:miter;stroke:rgb(0%,0%,100%);stroke-opacity:1;stroke-miterlimit:10;" d="M 66.753906 142.164062 L 74.242188 132.761719 "/>
<path style="fill:none;stroke-width:1.2;stroke-linecap:butt;stroke-linejoin:miter;stroke:rgb(0%,0%,0%);stroke-opacity:1;stroke-miterlimit:10;" d="M 72.519531 171.617188 L 59.265625 151.5625 "/>
<path style="fill:none;stroke-width:1.2;stroke-linecap:butt;stroke-linejoin:miter;stroke:rgb(0%,0%,100%);stroke-opacity:1;stroke-miterlimit:10;" d="M 74.242188 132.761719 L 85.496094 136.976562 "/>
<path style="fill:none;stroke-width:1.2;stroke-linecap:butt;stroke-linejoin:miter;stroke:rgb(0%,0%,0%);stroke-opacity:1;stroke-miterlimit:10;" d="M 85.496094 136.976562 L 96.75 141.195312 "/>
<path style=" stroke:none;fill-rule:nonzero;fill:rgb(100%,100%,100%);fill-opacity:1;" d="M 67.242188 127.261719 L 81.242188 127.261719 L 81.242188 138.261719 L 67.242188 138.261719 Z M 67.242188 127.261719 "/>
<g style="fill:rgb(0%,0%,100%);fill-opacity:1;">
  <use xlink:href="#glyph0-2" x="67.242188" y="135.924805"/>
  <use xlink:href="#glyph0-3" x="74.219727" y="135.924805"/>
</g>
<path style="fill:none;stroke-width:1.2;stroke-linecap:butt;stroke-linejoin:miter;stroke:rgb(0%,0%,0%);stroke-opacity:1;stroke-miterlimit:10;" d="M 96.75 141.195312 L 95.6875 165.207031 "/>
<path style="fill:none;stroke-width:1.2;stroke-linecap:butt;stroke-linejoin:miter;stroke:rgb(0%,0%,0%);stroke-opacity:1;stroke-miterlimit:10;" d="M 102.296875 143.84375 L 101.445312 163.058594 "/>
<path style="fill:none;stroke-width:1.2;stroke-linecap:butt;stroke-linejoin:miter;stroke:rgb(0%,0%,0%);stroke-opacity:1;stroke-miterlimit:10;" d="M 118.078125 130.109375 L 96.75 141.195312 "/>
<path style="fill:none;stroke-width:1.2;stroke-linecap:butt;stroke-linejoin:miter;stroke:rgb(0%,0%,0%);stroke-opacity:1;stroke-miterlimit:10;" d="M 95.6875 165.207031 L 105.820312 171.671875 "/>
<path style="fill:none;stroke-width:1.2;stroke-linecap:butt;stroke-linejoin:miter;stroke:rgb(0%,0%,100%);stroke-opacity:1;stroke-miterlimit:10;" d="M 105.820312 171.671875 L 115.953125 178.136719 "/>
<path style="fill:none;stroke-width:1.2;stroke-linecap:butt;stroke-linejoin:miter;stroke:rgb(0%,0%,0%);stroke-opacity:1;stroke-miterlimit:10;" d="M 95.6875 165.207031 L 72.519531 171.617188 "/>
<path style="fill:none;stroke-width:1.2;stroke-linecap:butt;stroke-linejoin:miter;stroke:rgb(0%,0%,100%);stroke-opacity:1;stroke-miterlimit:10;" d="M 115.953125 178.136719 L 126.617188 172.59375 "/>
<path style="fill:none;stroke-width:1.2;stroke-linecap:butt;stroke-linejoin:miter;stroke:rgb(0%,0%,0%);stroke-opacity:1;stroke-miterlimit:10;" d="M 126.617188 172.59375 L 137.28125 167.050781 "/>
<path style="fill:none;stroke-width:1.2;stroke-linecap:butt;stroke-linejoin:miter;stroke:rgb(0%,0%,100%);stroke-opacity:1;stroke-miterlimit:10;" d="M 115.476562 172.007812 L 124.007812 167.574219 "/>
<path style="fill:none;stroke-width:1.2;stroke-linecap:butt;stroke-linejoin:miter;stroke:rgb(0%,0%,0%);stroke-opacity:1;stroke-miterlimit:10;" d="M 124.007812 167.574219 L 132.539062 163.140625 "/>
<path style=" stroke:none;fill-rule:nonzero;fill:rgb(100%,100%,100%);fill-opacity:1;" d="M 112.953125 172.636719 L 119.953125 172.636719 L 119.953125 183.636719 L 112.953125 183.636719 Z M 112.953125 172.636719 "/>
<g style="fill:rgb(0%,0%,100%);fill-opacity:1;">
  <use xlink:href="#glyph0-2" x="112.953125" y="181.299805"/>
</g>
<path style="fill:none;stroke-width:1.2;stroke-linecap:butt;stroke-linejoin:miter;stroke:rgb(0%,0%,0%);stroke-opacity:1;stroke-miterlimit:10;" d="M 137.28125 167.050781 L 138.34375 143.035156 "/>
<path style="fill:none;stroke-width:1.2;stroke-linecap:butt;stroke-linejoin:miter;stroke:rgb(0%,0%,0%);stroke-opacity:1;stroke-miterlimit:10;" d="M 138.34375 143.035156 L 118.078125 130.109375 "/>
<path style="fill:none;stroke-width:1.2;stroke-linecap:butt;stroke-linejoin:miter;stroke:rgb(0%,0%,0%);stroke-opacity:1;stroke-miterlimit:10;" d="M 133.277344 146.511719 L 117.066406 136.167969 "/>
<path style="fill:none;stroke-width:1.2;stroke-linecap:butt;stroke-linejoin:miter;stroke:rgb(0%,0%,0%);stroke-opacity:1;stroke-miterlimit:10;" d="M 138.34375 143.035156 L 159.675781 131.949219 "/>
<path style="fill:none;stroke-width:1.2;stroke-linecap:butt;stroke-linejoin:miter;stroke:rgb(0%,0%,0%);stroke-opacity:1;stroke-miterlimit:10;" d="M 159.675781 131.949219 L 179.941406 144.878906 "/>
<path style="fill:none;stroke-width:1.2;stroke-linecap:butt;stroke-linejoin:miter;stroke:rgb(0%,0%,0%);stroke-opacity:1;stroke-miterlimit:10;" d="M 164.742188 128.472656 L 180.953125 138.816406 "/>
<path style="fill:none;stroke-width:1.2;stroke-linecap:butt;stroke-linejoin:miter;stroke:rgb(0%,0%,0%);stroke-opacity:1;stroke-miterlimit:10;" d="M 160.738281 107.933594 L 159.675781 131.949219 "/>
<path style="fill:none;stroke-width:1.2;stroke-linecap:butt;stroke-linejoin:miter;stroke:rgb(0%,0%,0%);stroke-opacity:1;stroke-miterlimit:10;" d="M 179.941406 144.878906 L 201.269531 133.792969 "/>
<path style="fill:none;stroke-width:1.2;stroke-linecap:butt;stroke-linejoin:miter;stroke:rgb(0%,0%,0%);stroke-opacity:1;stroke-miterlimit:10;" d="M 201.269531 133.792969 L 202.332031 109.777344 "/>
<path style="fill:none;stroke-width:1.2;stroke-linecap:butt;stroke-linejoin:miter;stroke:rgb(0%,0%,0%);stroke-opacity:1;stroke-miterlimit:10;" d="M 195.722656 131.140625 L 196.574219 111.929688 "/>
<path style="fill:none;stroke-width:1.2;stroke-linecap:butt;stroke-linejoin:miter;stroke:rgb(0%,0%,0%);stroke-opacity:1;stroke-miterlimit:10;" d="M 201.269531 133.792969 L 221.535156 146.722656 "/>
<path style="fill:none;stroke-width:1.2;stroke-linecap:butt;stroke-linejoin:miter;stroke:rgb(0%,0%,0%);stroke-opacity:1;stroke-miterlimit:10;" d="M 202.332031 109.777344 L 182.066406 96.847656 "/>
<path style="fill:none;stroke-width:1.2;stroke-linecap:butt;stroke-linejoin:miter;stroke:rgb(0%,0%,0%);stroke-opacity:1;stroke-miterlimit:10;" d="M 182.066406 96.847656 L 160.738281 107.933594 "/>
<path style="fill:none;stroke-width:1.2;stroke-linecap:butt;stroke-linejoin:miter;stroke:rgb(0%,0%,0%);stroke-opacity:1;stroke-miterlimit:10;" d="M 182.542969 102.976562 L 165.480469 111.84375 "/>
<path style="fill:none;stroke-width:1.2;stroke-linecap:butt;stroke-linejoin:miter;stroke:rgb(0%,0%,0%);stroke-opacity:1;stroke-miterlimit:10;" d="M 160.738281 107.933594 L 140.472656 95.007812 "/>
<path style="fill:none;stroke-width:1.2;stroke-linecap:butt;stroke-linejoin:miter;stroke:rgb(0%,0%,0%);stroke-opacity:1;stroke-miterlimit:10;" d="M 222.839844 149.230469 L 233.503906 143.6875 "/>
<path style="fill:none;stroke-width:1.2;stroke-linecap:butt;stroke-linejoin:miter;stroke:rgb(100%,0%,0%);stroke-opacity:1;stroke-miterlimit:10;" d="M 233.503906 143.6875 L 244.167969 138.144531 "/>
<path style="fill:none;stroke-width:1.2;stroke-linecap:butt;stroke-linejoin:miter;stroke:rgb(0%,0%,0%);stroke-opacity:1;stroke-miterlimit:10;" d="M 220.230469 144.210938 L 230.894531 138.667969 "/>
<path style="fill:none;stroke-width:1.2;stroke-linecap:butt;stroke-linejoin:miter;stroke:rgb(100%,0%,0%);stroke-opacity:1;stroke-miterlimit:10;" d="M 230.894531 138.667969 L 241.558594 133.125 "/>
<path style="fill:none;stroke-width:1.2;stroke-linecap:butt;stroke-linejoin:miter;stroke:rgb(0%,0%,0%);stroke-opacity:1;stroke-miterlimit:10;" d="M 221.535156 146.722656 L 221.003906 158.726562 "/>
<path style="fill:none;stroke-width:1.2;stroke-linecap:butt;stroke-linejoin:miter;stroke:rgb(0%,0%,100%);stroke-opacity:1;stroke-miterlimit:10;" d="M 221.003906 158.726562 L 220.46875 170.734375 "/>
<path style=" stroke:none;fill-rule:nonzero;fill:rgb(100%,100%,100%);fill-opacity:1;" d="M 238.863281 130.136719 L 246.863281 130.136719 L 246.863281 141.136719 L 238.863281 141.136719 Z M 238.863281 130.136719 "/>
<g style="fill:rgb(100%,0%,0%);fill-opacity:1;">
  <use xlink:href="#glyph0-1" x="238.863281" y="138.799805"/>
</g>
<path style="fill:none;stroke-width:1.2;stroke-linecap:butt;stroke-linejoin:miter;stroke:rgb(0%,0%,100%);stroke-opacity:1;stroke-miterlimit:10;" d="M 220.46875 170.734375 L 230.601562 177.199219 "/>
<path style="fill:none;stroke-width:1.2;stroke-linecap:butt;stroke-linejoin:miter;stroke:rgb(0%,0%,0%);stroke-opacity:1;stroke-miterlimit:10;" d="M 230.601562 177.199219 L 240.734375 183.664062 "/>
<path style=" stroke:none;fill-rule:nonzero;fill:rgb(100%,100%,100%);fill-opacity:1;" d="M 213.46875 165.234375 L 227.46875 165.234375 L 227.46875 176.234375 L 213.46875 176.234375 Z M 213.46875 165.234375 "/>
<g style="fill:rgb(0%,0%,100%);fill-opacity:1;">
  <use xlink:href="#glyph0-2" x="213.46875" y="173.897461"/>
  <use xlink:href="#glyph0-3" x="220.446289" y="173.897461"/>
</g>
<path style="fill:none;stroke-width:1.2;stroke-linecap:butt;stroke-linejoin:miter;stroke:rgb(0%,0%,0%);stroke-opacity:1;stroke-miterlimit:10;" d="M 240.734375 183.664062 L 264.75 184.726562 "/>
<path style="fill:none;stroke-width:1.2;stroke-linecap:butt;stroke-linejoin:miter;stroke:rgb(0%,0%,0%);stroke-opacity:1;stroke-miterlimit:10;" d="M 251.820312 204.992188 L 240.734375 183.664062 "/>
<path style="fill:none;stroke-width:1.2;stroke-linecap:butt;stroke-linejoin:miter;stroke:rgb(0%,0%,0%);stroke-opacity:1;stroke-miterlimit:10;" d="M 264.75 184.726562 L 251.820312 204.992188 "/>
<path style="fill:none;stroke-width:1.2;stroke-linecap:butt;stroke-linejoin:miter;stroke:rgb(0%,0%,0%);stroke-opacity:1;stroke-miterlimit:10;" d="M 72.519531 171.617188 L 51.191406 182.703125 "/>
<path style="fill:none;stroke-width:1.2;stroke-linecap:butt;stroke-linejoin:miter;stroke:rgb(0%,0%,0%);stroke-opacity:1;stroke-miterlimit:10;" d="M 72.519531 171.617188 L 81.316406 193.988281 "/>
</g>
</svg>

<svg xmlns="http://www.w3.org/2000/svg" xmlns:xlink="http://www.w3.org/1999/xlink" width="300pt" height="300pt" viewBox="0 0 300 300"><defs><symbol overflow="visible"><path d="M.453 1.594v-7.938h4.5v7.938zm.5-.5h3.5v-6.938h-3.5zm0 0"/></symbol><symbol overflow="visible" id="a"><path d="M3.547-5.953c-.65 0-1.164.242-1.547.72-.375.48-.563 1.13-.563 1.952 0 .835.188 1.49.563 1.967.383.48.898.72 1.547.72.644 0 1.156-.24 1.53-.72.376-.476.564-1.132.564-1.968 0-.822-.187-1.474-.562-1.954-.375-.477-.887-.72-1.53-.72zm0-.734c.914 0 1.648.312 2.203.937.55.617.828 1.438.828 2.47 0 1.042-.277 1.87-.828 2.483-.555.617-1.29.922-2.203.922-.93 0-1.668-.305-2.22-.922C.774-1.41.5-2.237.5-3.28c0-1.033.273-1.853.828-2.47.55-.625 1.29-.938 2.22-.938zm0 0"/></symbol><symbol overflow="visible" id="b"><path d="M.89-6.563H2.08l2.906 5.485v-5.484h.86V0H4.656L1.75-5.484V0H.89zm0 0"/></symbol><symbol overflow="visible" id="c"><path d="M.89-6.563h.876v2.688H5v-2.688h.89V0H5v-3.125H1.766V0H.89zm0 0"/></symbol></defs><g><path fill="#fff" d="M0 0h300v300H0z"/><path d="M35.125 153.324l12.008.53" stroke-width="1.2" stroke="#f00" stroke-miterlimit="10" fill="none"/><path d="M47.133 153.855l12.008.536" stroke-width="1.2" stroke="#000" stroke-miterlimit="10" fill="none"/><path d="M35.375 147.676l12.008.53" stroke-width="1.2" stroke="#f00" stroke-miterlimit="10" fill="none"/><path d="M47.383 148.207l12.008.53" stroke-width="1.2" stroke="#000" stroke-miterlimit="10" fill="none"/><path d="M27.25 145h8v11h-8zm0 0" fill="#fff"/><use xlink:href="#a" x="27.25" y="153.663" fill="#f00"/><path d="M59.266 151.563l7.488-9.4" stroke-width="1.2" stroke="#000" stroke-miterlimit="10" fill="none"/><path d="M66.754 142.164l7.488-9.402" stroke-width="1.2" stroke="#00f" stroke-miterlimit="10" fill="none"/><path d="M72.52 171.617l-13.254-20.054" stroke-width="1.2" stroke="#000" stroke-miterlimit="10" fill="none"/><path d="M74.242 132.762l11.254 4.215" stroke-width="1.2" stroke="#00f" stroke-miterlimit="10" fill="none"/><path d="M85.496 136.977l11.254 4.218" stroke-width="1.2" stroke="#000" stroke-miterlimit="10" fill="none"/><path d="M67.242 127.262h14v11h-14zm0 0" fill="#fff"/><g fill="#00f"><use xlink:href="#b" x="67.242" y="135.925"/><use xlink:href="#c" x="74.22" y="135.925"/></g><path d="M96.75 141.195l-1.063 24.012M102.297 143.844l-.852 19.215M118.078 130.11L96.75 141.194M95.688 165.207l10.132 6.465" stroke-width="1.2" stroke="#000" stroke-miterlimit="10" fill="none"/><path d="M105.82 171.672l10.133 6.465" stroke-width="1.2" stroke="#00f" stroke-miterlimit="10" fill="none"/><path d="M95.688 165.207l-23.168 6.41" stroke-width="1.2" stroke="#000" stroke-miterlimit="10" fill="none"/><path d="M115.953 178.137l10.664-5.543" stroke-width="1.2" stroke="#00f" stroke-miterlimit="10" fill="none"/><path d="M126.617 172.594l10.664-5.543" stroke-width="1.2" stroke="#000" stroke-miterlimit="10" fill="none"/><path d="M115.477 172.008l8.53-4.434" stroke-width="1.2" stroke="#00f" stroke-miterlimit="10" fill="none"/><path d="M124.008 167.574l8.53-4.433" stroke-width="1.2" stroke="#000" stroke-miterlimit="10" fill="none"/><path d="M112.953 172.637h7v11h-7zm0 0" fill="#fff"/><use xlink:href="#b" x="112.953" y="181.3" fill="#00f"/><path d="M137.28 167.05l1.064-24.015M138.344 143.035l-20.266-12.926M133.277 146.512l-16.21-10.344M138.344 143.035l21.332-11.086M159.676 131.95l20.265 12.93M164.742 128.473l16.21 10.343M160.738 107.934l-1.062 24.015M179.94 144.88l21.33-11.087M201.27 133.793l1.062-24.016M195.723 131.14l.85-19.21M201.27 133.793l20.265 12.93M202.332 109.777l-20.266-12.93M182.066 96.848l-21.328 11.086M182.543 102.977l-17.063 8.867M160.738 107.934l-20.265-12.926M222.84 149.23l10.664-5.542" stroke-width="1.2" stroke="#000" stroke-miterlimit="10" fill="none"/><path d="M233.504 143.688l10.664-5.543" stroke-width="1.2" stroke="#f00" stroke-miterlimit="10" fill="none"/><path d="M220.23 144.21l10.665-5.542" stroke-width="1.2" stroke="#000" stroke-miterlimit="10" fill="none"/><path d="M230.895 138.668l10.664-5.543" stroke-width="1.2" stroke="#f00" stroke-miterlimit="10" fill="none"/><path d="M221.535 146.723l-.53 12.004" stroke-width="1.2" stroke="#000" stroke-miterlimit="10" fill="none"/><path d="M221.004 158.727l-.535 12.007" stroke-width="1.2" stroke="#00f" stroke-miterlimit="10" fill="none"/><path d="M238.863 130.137h8v11h-8zm0 0" fill="#fff"/><use xlink:href="#a" x="238.863" y="138.8" fill="#f00"/><path d="M220.47 170.734L230.6 177.2" stroke-width="1.2" stroke="#00f" stroke-miterlimit="10" fill="none"/><path d="M230.602 177.2l10.132 6.464" stroke-width="1.2" stroke="#000" stroke-miterlimit="10" fill="none"/><path d="M213.47 165.234h14v11h-14zm0 0" fill="#fff"/><g fill="#00f"><use xlink:href="#b" x="213.469" y="173.897"/><use xlink:href="#c" x="220.446" y="173.897"/></g><path d="M240.734 183.664l24.016 1.063M251.82 204.992l-11.086-21.328M264.75 184.727l-12.93 20.265M72.52 171.617l-21.33 11.086M72.52 171.617l8.796 22.37" stroke-width="1.2" stroke="#000" stroke-miterlimit="10" fill="none"/></g></svg>
